X:57
T:Dan Mac's Polka
R:polka
Z:id:hn-polka-57
M:2/4
L:1/8
K:D
DF AF/A/|dc Bc|EF GF/G/|BA F2|DF AF/A/|dc Bc|EF G/A/G/E/|DF D2:|
|:fA fA|fA f2|eB eB|B/c/d e2|fA fA|fA f>f|eB cd|1 ed d>e:|2 ed d2||
<end>
<start>
